X:1
P: Mrs. Garden of Troop & Glenlyon's Strathspey
C: Robert Petrie Colln. IV, via Matt Petrie
C: arr. T. Traub 8-23-2004
R: Strathspey
M: 4/4
K: F
L: 1/8
|: B|"F"A<FF>A "Bb"B<d d2|"Gm"D<GG>F "C"E<CC>B|"F"A<FF>A "Bb"B<d d2|"Gm"D>G "C"F/E/D/C/ "F"F2 F :|
f|"F"a/g/f/e/ f>c "Bb"d>ef>d|"F"c>Af>A "C7"B>GG>f|"F"a/g/f/e/ "Dm"f>c "Bb"d>ef>d|"C"e/f/g g/a/b "F"a<ff>g|
"F"a>fe>f "Bb"d>f "F"d/c/B/A/|"F"A<f "Dm"d/c/B/A/ "C"G>AB>G|"F"F>cA>c "Bb"d>f"C"e>g|"F"a>f "C"e/f/g/e/ "F"f2 f |]
